X:701
T: EIN SULTAN HATT EIN TOECHTERLEIN
N: E2128
O: Europa, Mitteleuropa, Deutschland, Magdeburg
R: geistlich, Heiligen - Lied, Legende
M: 3/4
L: 1/16
K: G
G2 | G2B2d4c2A2 | G2B2B6
A2 | G2B2d4c2B2 | B4A4
d4 | B2c2d6BG | c2c2g6
e2 | g2B2B4c2A2 | A4G4z2
d2 | B2c2d6BG | c2c2g6
e2 | g2B2B4c2A2 | A4G4z2

